Newaita-dark/actions/22/view-paged.svg

<svg height="22" viewBox="0 0 22 22" width="22" xmlns="http://www.w3.org/2000/svg"><g fill="#e0e0e0"><path d="m8.1875 3.808594c-1.007812 0-1.820312.8125-1.820312 1.820312v12.734375c0 1.007813.8125 1.820313 1.820312 1.820313h9.097656c1.007813 0 1.820313-.8125 1.820313-1.820313v-7.277343c0-.042969 0-.082032-.003907-.125v-2.601563c0-.242187-.09375-.472656-.265624-.640625l-3.636719-3.640625c-.171875-.167969-.402344-.261719-.640625-.261719h-1.824219v-.007812zm4.546875 1.816406h1.449219l3.105468 3.109375v1.441406s0 0-.003906 0v7.277344c0 .503906-.402344.910156-.90625.910156h-7.28125c-.503906 0-.902344-.40625-.910156-.910156v-10.914063c0-.503906.40625-.910156.910156-.910156h3.636719zm0 0"/><path d="m4.546875 1.082031c-1.007813 0-1.808594.8125-1.816406 1.820313v11.824218c0 1.007813.808593 1.816407 1.816406 1.816407h.910156v-1.816407c-.503906 0-.902343-.40625-.910156-.910156v-10.007812c0-.503906.40625-.90625.910156-.90625h3.640625v-.007813h1.445313l.003906.007813h2.5625l-1.550781-1.550782c-.167969-.171874-.398438-.265624-.640625-.265624h-1.820313v-.003907zm0 0"/></g></svg>

<svg xmlns="http://www.w3.org/2000/svg" xmlns:xlink="http://www.w3.org/1999/xlink" width="22px" height="22px" viewBox="0 0 22 22" version="1.1">
<g id="surface1">
     <defs>
  <style id="current-color-scheme" type="text/css">
   .ColorScheme-Text { color:#eeeeee; } .ColorScheme-Highlight { color:#424242; }
  </style>
 </defs>
<path style="fill:currentColor" class="ColorScheme-Text" d="M 8.1875 3.808594 C 7.179688 3.808594 6.367188 4.621094 6.367188 5.628906 L 6.367188 18.363281 C 6.367188 19.371094 7.179688 20.183594 8.1875 20.183594 L 17.285156 20.183594 C 18.292969 20.183594 19.105469 19.371094 19.105469 18.363281 L 19.105469 11.085938 C 19.105469 11.042969 19.105469 11.003906 19.101562 10.960938 L 19.101562 8.359375 C 19.101562 8.117188 19.007812 7.886719 18.835938 7.71875 L 15.199219 4.078125 C 15.027344 3.910156 14.796875 3.816406 14.558594 3.816406 L 12.734375 3.816406 L 12.734375 3.808594 Z M 12.734375 5.625 L 14.183594 5.625 L 17.289062 8.734375 L 17.289062 10.175781 C 17.289062 10.175781 17.289062 10.175781 17.285156 10.175781 L 17.285156 17.453125 C 17.285156 17.957031 16.882812 18.363281 16.378906 18.363281 L 9.097656 18.363281 C 8.59375 18.363281 8.195312 17.957031 8.1875 17.453125 L 8.1875 6.539062 C 8.1875 6.035156 8.59375 5.628906 9.097656 5.628906 L 12.734375 5.628906 Z M 12.734375 5.625 "/>
     <defs>
  <style id="current-color-scheme" type="text/css">
   .ColorScheme-Text { color:#eeeeee; } .ColorScheme-Highlight { color:#424242; }
  </style>
 </defs>
<path style="fill:currentColor" class="ColorScheme-Text" d="M 4.546875 1.082031 C 3.539062 1.082031 2.738281 1.894531 2.730469 2.902344 L 2.730469 14.726562 C 2.730469 15.734375 3.539062 16.542969 4.546875 16.542969 L 5.457031 16.542969 L 5.457031 14.726562 C 4.953125 14.726562 4.554688 14.320312 4.546875 13.816406 L 4.546875 3.808594 C 4.546875 3.304688 4.953125 2.902344 5.457031 2.902344 L 9.097656 2.902344 L 9.097656 2.894531 L 10.542969 2.894531 L 10.546875 2.902344 L 13.109375 2.902344 L 11.558594 1.351562 C 11.390625 1.179688 11.160156 1.085938 10.917969 1.085938 L 9.097656 1.085938 L 9.097656 1.082031 Z M 4.546875 1.082031 "/>
</g>
</svg>
